public/teapot.svg

<svg fill="none" height="190" viewBox="0 0 187 190" width="187" xmlns="http://www.w3.org/2000/svg"><path clip-rule="evenodd" d="m48.0813 53.9287c-.0456.534-.1102 1.2758-.1436 1.6484-.0777.8683.1929 3.0003.5256 4.1394.7177 2.4576 2.4143 4.2574 5.0076 5.3122.756.3075 1.7851.6151 2.2868.6836.7344.1001.9391.1894 1.05.4574.202.4887.7043.8466 1.1295.8047.3459-.0341.4043.0315.8193.9184.2643.565.3816 1.0348.2874 1.1498-.433.5281-.687 2.4204-.5359 3.9909.1661 1.7241.6717 3.1765 1.6865 4.8433.2888.4743.5164.9375.5057 1.0293s.1372.5457.3287 1.0085c.1914.463.5648 1.4321.8297 2.1537.5521 1.5042 1.2838 2.5043 2.348 3.2096 1.0748.7124 2.1995 1.9634 2.648 2.9452.3609.7901.4619 1.4413.7944 5.1262.1566 1.7344.3831 2.2014 1.5221 3.1383 2.1786 1.7918 2.9845 3.2275 2.9661 5.2834-.0059.656.0653 1.884.1582 2.729.1339 1.219.0885 1.865-.2195 3.12l-.3883 1.584 1.1323.802c.6229.442 1.8009 1.149 2.6178 1.571 1.1815.611 1.5019.719 1.5664.525.0667-.201.0916-.189.1408.066.0678.351.3577.531 2.6853 1.665 1.7661.861 4.179 2.549 5.3504 3.742 1.0775 1.098 1.901 2.891 3.0688 6.679.3168 1.028.9335 2.897 1.3704 4.153l.7944 2.285-.9198 1.056c-2.5107 2.882-5.4279 4.282-8.8978 4.269-.6805-.003-2.6511-.21-3.2099-.338-7.002-1.604-15.8803-2.32-23.0946-1.861-2.3944.152-5.5814.809-6.5121 1.342-.3541.203-.4177.347-.4627 1.045-.1369 2.117-1.1837 5.072-3.0209 8.527-1.0767 2.025-1.358 2.666-.9525 2.172.2219-.27 2.2319-1.046 3.5772-1.381 2.0098-.5 5.7177-.755 8.6411-.595 2.5476.14 6.1921.538 6.3865.698.0581.047.2578.081.4435.074.3118-.01 1.7599.299 4.3444.93 1.2397.302 3.9838 1.208 4.2015 1.386.656.539 6.298 3.032 8.9657 3.963 2.8829 1.005 6.8062 1.989 8.6041 2.157.2724.026 1.0593.1 1.7487.165 3.8248.362 7.5644.091 11.1554-.806 2.076-.519 4.271-1.405 6.536-2.637l1.218-.662 1.531.25c2.913.476 5.598.434 8.355-.13 1.358-.278 4.202-1.28 5.661-1.995.747-.367 1.656-.807 2.019-.979.362-.171.698-.359.746-.417.047-.058.808-.574 1.69-1.147.916-.595 1.708-1.215 1.846-1.444.133-.221.263-.343.287-.271.052.152.911-.512 2.551-1.971.976-.868 2.512-2.693 9.929-11.8l8.775-10.773 1.084-2.123c2.694-5.276 3.934-9.715 3.986-14.276.034-2.937-.502-5.8598-1.485-8.0945-.424-.9615-.307-1.0275.726-.4132.934.5556 2.062.7667 3.572.6687 1.748-.1135 3.155-.53 4.712-1.3946 1.635-.9075 2.506-1.6682 3.668-3.2024.867-1.1438 1.002-1.4118 1.26-2.4987.756-3.1871-.736-7.1201-3.316-8.7457-1.328-.8367-2.077-1.0203-3.778-.9258-1.861.1036-3.99 1.5646-4.268 2.9287-.448 2.2009 2.219 3.8904 4.028 2.5519.765-.5658 1.218-.4715 1.812.378.475.679.722 2.2372.447 2.8192-.093.1975-.507.7061-.919 1.1302-1.209 1.2454-3.309 2.0689-4.592 1.801-.406-.0847-.65-.2695-1.347-1.0179-1.224-1.3154-2.152-3.4208-2.356-5.3436-.175-1.6515-.112-2.4414.492-6.1724.771-4.7614.879-5.9151.812-8.7098-.154-6.4248-1.411-11.4392-4.046-16.1462-2.621-4.6835-6.272-8.1391-10.756-10.1801-2.057-.9366-5.411-1.8715-6.796-1.8947-.302-.0049-.927-.0392-1.389-.076-1.854-.1477-5.03.2633-7.559.9777-2.554.7215-6.151 2.7202-8.845 4.9154-3.323 2.7071-4.959 4.7445-6.284 7.8282-1.067 2.4854-1.443 4.4429-1.354 7.0647.076 2.2163.294 3.266 1.374 6.6189.177.5462.169.5904-.052.3124-.59-.7417-2.353-2.6455-2.819-3.0431-.477-.4079-.531-.4117-1.15-.0802-.356.1913-.766.3913-.911.4442-.144.0529-.477.2019-.739.3312s-1.285.3211-2.275.4263c-.989.1052-2.399.2787-3.134.3857-1.8328.2663-2.4273.0691-4.6895-1.5558-2.139-1.5361-1.8745-1.4861-5.6887-1.0748-3.5195.3797-4.0055.2466-6.7681-1.8542l-2.06-1.5665-1.6346-.2339c-1.8733-.2681-5.126-.9514-6.0202-1.2648-1.9684-.6895-5.2768-.2625-7.1166.9187-.4267.274-.6515.2823-1.4085.053-.8656-.2625-.9064-.2918-1.0527-.7591-.1291-.4125-.233-.5146-.6873-.6755-.4913-.1738-.5706-.2776-.9687-1.2665-.4189-1.0406-2.1379-3.5408-2.817-4.0969-.6796-.5568-3.2105-1.5725-4.1576-1.6687-1.4847-.1507-3.1325-.023-4.6565.361-1.2075.3042-2.3676.7009-2.4446.8357-.0133.0234-.0615.4795-.1071 1.0135zm72.1647-2.9031c.496-.3935 1.041-.8342 1.212-.9794.685-.5807 1.147-.8964 2.279-1.5584 5.58-3.261 10.877-3.649 16.544-1.2118 1.34.5757 1.633.7698 3.567 2.3629 1.89 1.556 2.212 1.8787 3.11 3.1217 2.427 3.3567 3.907 7.002 4.579 11.2713.649 4.1234.556 7.4638-.362 13.0014-.301 1.8108-.561 3.6545-.579 4.097-.07 1.7502.09 3.9022.369 4.9544.161.6087.339 1.2791.395 1.4896.09.3399-.115.2064-1.827-1.1919-3.145-2.5693-7.247-4.8047-10.91-5.9467-2.892-.9015-7.133-1.7026-11.461-2.165-1.073-.1146-1.983-.2345-2.022-.2666-.039-.032.386-.1744.944-.3166 2.086-.5315 3.61-1.5644 5.235-3.5477 2.245-2.7414 2.727-5.7582 1.383-8.6691-1.244-2.6976-3.592-4.1831-6.55-4.1442-1.432.0189-2.298.3648-2.896 1.1569-.39.5167-.526.8661-.556 1.4355-.047.8896.132 1.2924.882 1.978.659.603 1.038.7003 2.407.6181 1.254-.0752 1.856.3139 2.179 1.4095.331 1.1232.062 1.9479-1.035 3.1736-1.456 1.6261-2.943 2.0797-4.838 1.4756-1.267-.4039-3.217-1.9545-4.321-3.4349-.869-1.1663-2.252-4.093-2.425-5.1333-.34-2.0488-.405-2.7127-.357-3.6647.028-.5716.077-1.0708.109-1.1092.032-.0385.1-.4101.152-.8258.08-.6402.864-2.5877 1.569-3.8965.343-.636 2.295-2.7456 3.224-3.4837z" fill="#e2def0" fill-rule="evenodd"/></svg>

<svg width="187" height="190" viewBox="0 0 187 190" fill="none" xmlns="http://www.w3.org/2000/svg">
<path fill-rule="evenodd" clip-rule="evenodd" d="M48.0813 53.9287C48.0357 54.4627 47.9711 55.2045 47.9377 55.5771C47.86 56.4454 48.1306 58.5774 48.4633 59.7165C49.181 62.1741 50.8776 63.9739 53.4709 65.0287C54.2269 65.3362 55.256 65.6438 55.7577 65.7123C56.4921 65.8124 56.6968 65.9017 56.8077 66.1697C57.0097 66.6584 57.512 67.0163 57.9372 66.9744C58.2831 66.9403 58.3415 67.0059 58.7565 67.8928C59.0208 68.4578 59.1381 68.9276 59.0439 69.0426C58.6109 69.5707 58.3569 71.463 58.508 73.0335C58.6741 74.7576 59.1797 76.21 60.1945 77.8768C60.4833 78.3511 60.7109 78.8143 60.7002 78.9061C60.6895 78.9979 60.8374 79.4518 61.0289 79.9146C61.2203 80.3776 61.5937 81.3467 61.8586 82.0683C62.4107 83.5725 63.1424 84.5726 64.2066 85.2779C65.2814 85.9903 66.4061 87.2413 66.8546 88.2231C67.2155 89.0132 67.3165 89.6644 67.649 93.3493C67.8056 95.0837 68.0321 95.5507 69.1711 96.4876C71.3497 98.2794 72.1556 99.7151 72.1372 101.771C72.1313 102.427 72.2025 103.655 72.2954 104.5C72.4293 105.719 72.3839 106.365 72.0759 107.62L71.6876 109.204L72.8199 110.006C73.4428 110.448 74.6208 111.155 75.4377 111.577C76.6192 112.188 76.9396 112.296 77.0041 112.102C77.0708 111.901 77.0957 111.913 77.1449 112.168C77.2127 112.519 77.5026 112.699 79.8302 113.833C81.5963 114.694 84.0092 116.382 85.1806 117.575C86.2581 118.673 87.0816 120.466 88.2494 124.254C88.5662 125.282 89.1829 127.151 89.6198 128.407L90.4142 130.692L89.4944 131.748C86.9837 134.63 84.0665 136.03 80.5966 136.017C79.9161 136.014 77.9455 135.807 77.3867 135.679C70.3847 134.075 61.5064 133.359 54.2921 133.818C51.8977 133.97 48.7107 134.627 47.78 135.16C47.4259 135.363 47.3623 135.507 47.3173 136.205C47.1804 138.322 46.1336 141.277 44.2964 144.732C43.2197 146.757 42.9384 147.398 43.3439 146.904C43.5658 146.634 45.5758 145.858 46.9211 145.523C48.9309 145.023 52.6388 144.768 55.5622 144.928C58.1098 145.068 61.7543 145.466 61.9487 145.626C62.0068 145.673 62.2065 145.707 62.3922 145.7C62.704 145.69 64.1521 145.999 66.7366 146.63C67.9763 146.932 70.7204 147.838 70.9381 148.016C71.5941 148.555 77.2361 151.048 79.9038 151.979C82.7867 152.984 86.71 153.968 88.5079 154.136C88.7803 154.162 89.5672 154.236 90.2566 154.301C94.0814 154.663 97.821 154.392 101.412 153.495C103.488 152.976 105.683 152.09 107.948 150.858L109.166 150.196L110.697 150.446C113.61 150.922 116.295 150.88 119.052 150.316C120.41 150.038 123.254 149.036 124.713 148.321C125.46 147.954 126.369 147.514 126.732 147.342C127.094 147.171 127.43 146.983 127.478 146.925C127.525 146.867 128.286 146.351 129.168 145.778C130.084 145.183 130.876 144.563 131.014 144.334C131.147 144.113 131.277 143.991 131.301 144.063C131.353 144.215 132.212 143.551 133.852 142.092C134.828 141.224 136.364 139.399 143.781 130.292L152.556 119.519L153.64 117.396C156.334 112.12 157.574 107.681 157.626 103.12C157.66 100.183 157.124 97.2602 156.141 95.0255C155.717 94.064 155.834 93.998 156.867 94.6123C157.801 95.1679 158.929 95.379 160.439 95.281C162.187 95.1675 163.594 94.751 165.151 93.8864C166.786 92.9789 167.657 92.2182 168.819 90.684C169.686 89.5402 169.821 89.2722 170.079 88.1853C170.835 84.9982 169.343 81.0652 166.763 79.4396C165.435 78.6029 164.686 78.4193 162.985 78.5138C161.124 78.6174 158.995 80.0784 158.717 81.4425C158.269 83.6434 160.936 85.3329 162.745 83.9944C163.51 83.4286 163.963 83.5229 164.557 84.3724C165.032 85.0514 165.279 86.6096 165.004 87.1916C164.911 87.3891 164.497 87.8977 164.085 88.3218C162.876 89.5672 160.776 90.3907 159.493 90.1228C159.087 90.0381 158.843 89.8533 158.146 89.1049C156.922 87.7895 155.994 85.6841 155.79 83.7613C155.615 82.1098 155.678 81.3199 156.282 77.5889C157.053 72.8275 157.161 71.6738 157.094 68.8791C156.94 62.4543 155.683 57.4399 153.048 52.7329C150.427 48.0494 146.776 44.5938 142.292 42.5528C140.235 41.6162 136.881 40.6813 135.496 40.6581C135.194 40.6532 134.569 40.6189 134.107 40.5821C132.253 40.4344 129.077 40.8454 126.548 41.5598C123.994 42.2813 120.397 44.28 117.703 46.4752C114.38 49.1823 112.744 51.2197 111.419 54.3034C110.352 56.7888 109.976 58.7463 110.065 61.3681C110.141 63.5844 110.359 64.6341 111.439 67.987C111.616 68.5332 111.608 68.5774 111.387 68.2994C110.797 67.5577 109.034 65.6539 108.568 65.2563C108.091 64.8484 108.037 64.8446 107.418 65.1761C107.062 65.3674 106.652 65.5674 106.507 65.6203C106.363 65.6732 106.03 65.8222 105.768 65.9515C105.506 66.0808 104.483 66.2726 103.493 66.3778C102.504 66.483 101.094 66.6565 100.359 66.7635C98.5262 67.0298 97.9317 66.8326 95.6695 65.2077C93.5305 63.6716 93.795 63.7216 89.9808 64.1329C86.4613 64.5126 85.9753 64.3795 83.2127 62.2787L81.1527 60.7122L79.5181 60.4783C77.6448 60.2102 74.3921 59.5269 73.4979 59.2135C71.5295 58.524 68.2211 58.951 66.3813 60.1322C65.9546 60.4062 65.7298 60.4145 64.9728 60.1852C64.1072 59.9227 64.0664 59.8934 63.9201 59.4261C63.791 59.0136 63.6871 58.9115 63.2328 58.7506C62.7415 58.5768 62.6622 58.473 62.2641 57.4841C61.8452 56.4435 60.1262 53.9433 59.4471 53.3872C58.7675 52.8304 56.2366 51.8147 55.2895 51.7185C53.8048 51.5678 52.157 51.6955 50.633 52.0795C49.4255 52.3837 48.2654 52.7804 48.1884 52.9152C48.1751 52.9386 48.1269 53.3947 48.0813 53.9287ZM120.246 51.0256C120.742 50.6321 121.287 50.1914 121.458 50.0462C122.143 49.4655 122.605 49.1498 123.737 48.4878C129.317 45.2268 134.614 44.8388 140.281 47.276C141.621 47.8517 141.914 48.0458 143.848 49.6389C145.738 51.1949 146.06 51.5176 146.958 52.7606C149.385 56.1173 150.865 59.7626 151.537 64.0319C152.186 68.1553 152.093 71.4957 151.175 77.0333C150.874 78.8441 150.614 80.6878 150.596 81.1303C150.526 82.8805 150.686 85.0325 150.965 86.0847C151.126 86.6934 151.304 87.3638 151.36 87.5743C151.45 87.9142 151.245 87.7807 149.533 86.3824C146.388 83.8131 142.286 81.5777 138.623 80.4357C135.731 79.5342 131.49 78.7331 127.162 78.2707C126.089 78.1561 125.179 78.0362 125.14 78.0041C125.101 77.9721 125.526 77.8297 126.084 77.6875C128.17 77.156 129.694 76.1231 131.319 74.1398C133.564 71.3984 134.046 68.3816 132.702 65.4707C131.458 62.7731 129.11 61.2876 126.152 61.3265C124.72 61.3454 123.854 61.6913 123.256 62.4834C122.866 63.0001 122.73 63.3495 122.7 63.9189C122.653 64.8085 122.832 65.2113 123.582 65.8969C124.241 66.4999 124.62 66.5972 125.989 66.515C127.243 66.4398 127.845 66.8289 128.168 67.9245C128.499 69.0477 128.23 69.8724 127.133 71.0981C125.677 72.7242 124.19 73.1778 122.295 72.5737C121.028 72.1698 119.078 70.6192 117.974 69.1388C117.105 67.9725 115.722 65.0458 115.549 64.0055C115.209 61.9567 115.144 61.2928 115.192 60.3408C115.22 59.7692 115.269 59.27 115.301 59.2316C115.333 59.1931 115.401 58.8215 115.453 58.4058C115.533 57.7656 116.317 55.8181 117.022 54.5093C117.365 53.8733 119.317 51.7637 120.246 51.0256Z" fill="#E2DEF0"/>
</svg>
